icons/leaf.svg

<svg width="24" height="24" viewBox="0 0 24 24" fill="none" xmlns="http://www.w3.org/2000/svg">
<path fill-rule="evenodd" clip-rule="evenodd" d="M5.3141 5.10123C7.66889 3.12764 11.3049 2 16.4882 2H21C21.5523 2 22 2.44772 22 3V5.29412C22 5.3144 21.9994 5.33468 21.9981 5.35493C21.7076 10.1242 20.3065 13.5793 17.9139 15.834C15.521 18.089 12.2884 19 8.63582 19H5.55901C5.36371 19.6694 5.22462 20.3393 5.13287 21.1172C5.06817 21.6656 4.57109 22.0578 4.02261 21.9931C3.47413 21.9284 3.08194 21.4314 3.14663 20.8829C3.27653 19.7816 3.49209 18.8604 3.79947 17.9225C2.00406 15.784 2 13.7171 2 12.7059L2 12.7029C2.00852 9.83679 2.93042 7.09903 5.3141 5.10123ZM6.30424 17C7.42486 14.6108 9.34565 12.6105 12.3941 11.3342C12.9035 11.1209 13.1436 10.535 12.9303 10.0256C12.717 9.51616 12.1311 9.27608 11.6217 9.48936C8.27246 10.8916 6.0474 13.0962 4.69854 15.7327C3.99997 14.5042 3.99999 13.4126 4 12.7137L4 12.7074C4.00752 10.28 4.7717 8.16537 6.59879 6.63406C8.45512 5.07824 11.5553 4 16.4882 4H20V5.26339C19.7246 9.70152 18.4397 12.5904 16.5423 14.3785C14.6408 16.1703 11.9723 17 8.63582 17H6.30424Z" fill="black"/>
</svg>

<svg
  width="24"
  height="24"
  viewBox="0 0 24 24"
  xmlns="http://www.w3.org/2000/svg"
>
  <path
    fill-rule="evenodd"
    clip-rule="evenodd"
    d="M5.314 5.101C7.67 3.128 11.304 2 16.488 2H21a1 1 0 0 1 1 1v2.294c0 .02 0 .04-.002.06-.29 4.77-1.692 8.225-4.084 10.48C15.52 18.089 12.288 19 8.636 19H5.559a12.66 12.66 0 0 0-.426 2.117 1 1 0 0 1-1.986-.234c.13-1.101.345-2.023.652-2.96C2.004 15.784 2 13.716 2 12.706v-.003c.009-2.866.93-5.604 3.314-7.602zM6.304 17c1.12-2.39 3.042-4.39 6.09-5.666a1 1 0 0 0-.772-1.845c-3.35 1.403-5.575 3.607-6.923 6.244C4 14.504 4 13.413 4 12.713v-.006c.008-2.427.772-4.542 2.599-6.073C8.455 5.078 11.555 4 16.489 4H20v1.263c-.275 4.439-1.56 7.327-3.458 9.116C14.641 16.17 11.972 17 8.636 17H6.304z"
  />
</svg>
